X:177
T:Martin Wynne's
R:Reel
O:Ireland
S:Irish Traditional Music Session Tunes
B:Irish Traditional Music Session Tunes 1 p18
Z:Transcription, minor arr., chords:Mike Long
M:C|
L:1/8
K:D
"Bm"FBAF "A"E2FE|"Bm"DB,~B,2 "D"DB,A,2|"Em"B,E~E2 FEDE|\
"D"FABc "F#m"dcBA|"Bm"FBAF "A"E2FE|"Bm"DB,~B,2 "D"DB,A,2|
"Em"B,E~E2 FEDE|"Bm"FBBA B2BA:|\
|:"D"FBAF A2FA|\
"Em"Beeg "D"fdde|"Bm"f2af "A"egfe|
"D"dBAF "F#m"BAFE|"Bm"FBAF "D"A2FA|"Em"Beeg "D"fdde|\
"Bm"fbaf "A"egfe|"D"dB"A"AF "Bm"B2BA:|
